X:0362
M:6/8
L:1/8
Q:3/8=120
K:D
a|a2f dfa|b2g efg|a2d c2d|ecA A2
a|a2f dfa|b2g efg|afd Adc|d3  d2:|

